webgl/assets/textures/lut.3dl
#Generated by Picture Instruments - Look Creator
3DMESH
Mesh 4 10
0 64 128 192 256 320 384 448 512 576 640 704 768 832 896 960 1023
36 36 36
44 44 44
44 44 44
56 56 56
64 64 64
84 84 84
92 92 92
124 124 124
164 164 164
200 200 200
228 228 228
268 268 268
328 328 328
380 380 380
472 472 472
556 556 556
664 664 664
40 40 40
36 36 36
48 48 48
60 60 60
76 76 76
88 88 88
112 112 112
144 144 144
164 164 164
208 208 208
224 224 224
292 292 292
352 352 352
404 404 404
480 480 480
564 564 564
668 668 668
52 52 52
64 64 64
56 56 56
76 76 76
92 92 92
124 124 124
136 136 136
168 168 168
200 200 200
204 204 204
232 232 232
304 304 304
340 340 340
400 400 400
492 492 492
580 580 580
676 676 676
76 76 76
84 84 84
96 96 96
100 100 100
108 108 108
120 120 120
156 156 156
184 184 184
212 212 212
240 240 240
256 256 256
308 308 308
352 352 352
420 420 420
488 488 488
596 596 596
664 664 664
100 100 100
108 108 108
136 136 136
148 148 148
152 152 152
144 144 144
152 152 152
188 188 188
224 224 224
272 272 272
288 288 288
344 344 344
392 392 392
436 436 436
508 508 508
604 604 604
672 672 672
120 120 120
140 140 140
172 172 172
184 184 184
200 200 200
176 176 176
208 208 208
212 212 212
224 224 224
272 272 272
324 324 324
376 376 376
408 408 408
468 468 468
532 532 532
616 616 616
692 692 692
172 172 172
176 176 176
188 188 188
244 244 244
256 256 256
264 264 264
260 260 260
264 264 264
268 268 268
280 280 280
324 324 324
364 364 364
452 452 452
500 500 500
556 556 556
628 628 628
696 696 696
212 212 212
236 236 236
244 244 244
272 272 272
296 296 296
320 320 320
336 336 336
320 320 320
324 324 324
348 348 348
344 344 344
376 376 376
432 432 432
488 488 488
580 580 580
644 644 644
692 692 692
260 260 260
276 276 276
292 292 292
320 320 320
364 364 364
380 380 380
392 392 392
408 408 408
388 388 388
404 404 404
412 412 412
428 428 428
440 440 440
516 516 516
576 576 576
636 636 636
716 716 716
344 344 344
324 324 324
348 348 348
376 376 376
396 396 396
448 448 448
460 460 460
484 484 484
496 496 496
464 464 464
484 484 484
480 480 480
512 512 512
520 520 520
552 552 552
624 624 624
692 692 692
400 400 400
392 392 392
412 412 412
432 432 432
456 456 456
492 492 492
512 512 512
548 548 548
544 544 544
564 564 564
548 548 548
560 560 560
568 568 568
592 592 592
600 600 600
600 600 600
660 660 660
468 468 468
472 472 472
472 472 472
508 508 508
532 532 532
556 556 556
588 588 588
604 604 604
616 616 616
628 628 628
640 640 640
624 624 624
624 624 624
644 644 644
660 660 660
680 680 680
676 676 676
548 548 548
544 544 544
556 556 556
568 568 568
584 584 584
616 616 616
632 632 632
656 656 656
684 684 684
692 692 692
724 724 724
704 704 704
688 688 688
704 704 704
728 728 728
744 744 744
744 744 744
632 632 632
624 624 624
632 632 632
624 624 624
640 640 640
688 688 688
692 692 692
712 712 712
740 740 740
740 740 740
752 752 752
780 780 780
760 760 760
752 752 752
768 768 768
804 804 804
812 812 812
700 700 700
696 696 696
700 700 700
716 716 716
708 708 708
748 748 748
760 760 760
776 776 776
796 796 796
796 796 796
824 824 824
832 832 832
860 860 860
824 824 824
820 820 820
848 848 848
852 852 852
756 756 756
764 764 764
768 768 768
788 788 788
776 776 776
804 804 804
804 804 804
824 824 824
844 844 844
840 840 840
876 876 876
892 892 892
888 888 888
884 884 884
868 868 868
892 892 892
912 912 912
848 848 848
832 832 832
856 856 856
864 864 864
860 860 860
864 864 864
876 876 876
884 884 884
904 904 904
908 908 908
916 916 916
928 928 928
936 936 936
940 940 940
928 928 928
916 916 916
944 944 944
36 36 36
48 48 48
36 36 36
52 52 52
64 64 64
88 88 88
96 96 96
124 124 124
160 160 160
192 192 192
224 224 224
288 288 288
340 340 340
404 404 404
472 472 472
588 588 588
672 672 672
48 48 48
60 60 60
60 60 60
56 56 56
72 72 72
104 104 104
116 116 116
140 140 140
176 176 176
216 216 216
248 248 248
300 300 300
352 352 352
404 404 404
496 496 496
584 584 584
672 672 672
64 64 64
76 76 76
64 64 64
84 84 84
108 108 108
124 124 124
140 140 140
168 168 168
192 192 192
236 236 236
252 252 252
320 320 320
360 360 360
420 420 420
504 504 504
584 584 584
676 676 676
76 76 76
80 80 80
108 108 108
104 104 104
116 116 116
132 132 132
164 164 164
188 188 188
224 224 224
244 244 244
276 276 276
316 316 316
376 376 376
444 444 444
516 516 516
588 588 588
684 684 684
92 92 92
112 112 112
132 132 132
152 152 152
164 164 164
164 164 164
172 172 172
212 212 212
244 244 244
292 292 292
304 304 304
344 344 344
412 412 412
460 460 460
524 524 524
600 600 600
680 680 680
132 132 132
152 152 152
156 156 156
200 200 200
196 196 196
204 204 204
216 216 216
220 220 220
236 236 236
284 284 284
340 340 340
396 396 396
428 428 428
484 484 484
532 532 532
628 628 628
712 712 712
176 176 176
188 188 188
204 204 204
232 232 232
264 264 264
272 272 272
280 280 280
276 276 276
288 288 288
304 304 304
336 336 336
388 388 388
448 448 448
504 504 504
556 556 556
620 620 620
712 712 712
216 216 216
236 236 236
268 268 268
272 272 272
328 328 328
328 328 328
352 352 352
324 324 324
352 352 352
352 352 352
348 348 348
392 392 392
468 468 468
520 520 520
592 592 592
648 648 648
708 708 708
280 280 280
292 292 292
304 304 304
328 328 328
340 340 340
396 396 396
412 412 412
428 428 428
396 396 396
416 416 416
420 420 420
432 432 432
440 440 440
500 500 500
584 584 584
644 644 644
724 724 724
324 324 324
340 340 340
364 364 364
380 380 380
408 408 408
444 444 444
476 476 476
484 484 484
492 492 492
476 476 476
472 472 472
508 508 508
496 496 496
524 524 524
556 556 556
636 636 636
708 708 708
388 388 388
392 392 392
424 424 424
436 436 436
468 468 468
496 496 496
544 544 544
540 540 540
584 584 584
568 568 568
540 540 540
568 568 568
572 572 572
596 596 596
608 608 608
624 624 624
684 684 684
476 476 476
480 480 480
472 472 472
512 512 512
532 532 532
540 540 540
592 592 592
624 624 624
628 628 628
648 648 648
632 632 632
640 640 640
636 636 636
644 644 644
684 684 684
684 684 684
684 684 684
540 540 540
544 544 544
556 556 556
588 588 588
580 580 580
608 608 608
640 640 640
672 672 672
692 692 692
704 704 704
716 716 716
716 716 716
692 692 692
716 716 716
728 728 728
756 756 756
756 756 756
628 628 628
632 632 632
620 620 620
656 656 656
656 656 656
672 672 672
700 700 700
716 716 716
752 752 752
748 748 748
764 764 764
784 784 784
772 772 772
764 764 764
792 792 792
784 784 784
812 812 812
684 684 684
700 700 700
696 696 696
704 704 704
720 720 720
724 724 724
748 748 748
780 780 780
796 796 796
816 816 816
832 832 832
816 816 816
836 836 836
824 824 824
824 824 824
832 832 832
856 856 856
768 768 768
768 768 768
788 788 788
788 788 788
784 784 784
800 800 800
804 804 804
820 820 820
840 840 840
852 852 852
856 856 856
900 900 900
900 900 900
884 884 884
888 888 888
880 880 880
904 904 904
860 860 860
836 836 836
848 848 848
856 856 856
868 868 868
864 864 864
880 880 880
896 896 896
892 892 892
896 896 896
916 916 916
932 932 932
932 932 932
948 948 948
944 944 944
928 928 928
948 948 948
44 44 44
64 64 64
52 52 52
60 60 60
84 84 84
104 104 104
108 108 108
156 156 156
180 180 180
212 212 212
248 248 248
296 296 296
340 340 340
404 404 404
492 492 492
572 572 572
676 676 676
60 60 60
60 60 60
68 68 68
88 88 88
96 96 96
108 108 108
128 128 128
152 152 152
184 184 184
220 220 220
260 260 260
312 312 312
360 360 360
424 424 424
492 492 492
584 584 584
668 668 668
64 64 64
88 88 88
88 88 88
124 124 124
116 116 116
136 136 136
148 148 148
172 172 172
204 204 204
240 240 240
268 268 268
320 320 320
372 372 372
432 432 432
516 516 516
588 588 588
688 688 688
72 72 72
100 100 100
116 116 116
124 124 124
132 132 132
160 160 160
172 172 172
208 208 208
224 224 224
264 264 264
296 296 296
316 316 316
380 380 380
436 436 436
520 520 520
596 596 596
680 680 680
104 104 104
128 128 128
128 128 128
152 152 152
160 160 160
172 172 172
196 196 196
220 220 220
252 252 252
280 280 280
320 320 320
368 368 368
400 400 400
452 452 452
532 532 532
604 604 604
696 696 696
136 136 136
144 144 144
160 160 160
180 180 180
216 216 216
212 212 212
208 208 208
240 240 240
256 256 256
304 304 304
344 344 344
384 384 384
436 436 436
484 484 484
552 552 552
624 624 624
704 704 704
172 172 172
200 200 200
204 204 204
236 236 236
272 272 272
284 284 284
268 268 268
304 304 304
300 300 300
304 304 304
360 360 360
420 420 420
460 460 460
508 508 508
576 576 576
628 628 628
720 720 720
236 236 236
244 244 244
252 252 252
284 284 284
312 312 312
344 344 344
356 356 356
344 344 344
344 344 344
364 364 364
368 368 368
404 404 404
468 468 468
528 528 528
592 592 592
664 664 664
720 720 720
284 284 284
284 284 284
292 292 292
336 336 336
368 368 368
384 384 384
416 416 416
416 416 416
412 412 412
420 420 420
420 420 420
432 432 432
448 448 448
520 520 520
572 572 572
664 664 664
740 740 740
340 340 340
340 340 340
360 360 360
372 372 372
412 412 412
432 432 432
468 468 468
496 496 496
500 500 500
480 480 480
484 484 484
496 496 496
520 520 520
520 520 520
568 568 568
636 636 636
708 708 708
400 400 400
404 404 404
408 408 408
436 436 436
472 472 472
496 496 496
540 540 540
568 568 568
580 580 580
576 576 576
560 560 560
568 568 568
572 572 572
588 588 588
608 608 608
632 632 632
696 696 696
468 468 468
472 472 472
480 480 480
512 512 512
536 536 536
548 548 548
596 596 596
620 620 620
632 632 632
660 660 660
644 644 644
628 628 628
656 656 656
660 660 660
672 672 672
680 680 680
700 700 700
544 544 544
552 552 552
564 564 564
564 564 564
596 596 596
608 608 608
636 636 636
668 668 668
676 676 676
704 704 704
736 736 736
708 708 708
684 684 684
716 716 716
724 724 724
740 740 740
756 756 756
604 604 604
612 612 612
628 628 628
640 640 640
664 664 664
684 684 684
700 700 700
728 728 728
752 752 752
744 744 744
768 768 768
804 804 804
768 768 768
760 760 760
772 772 772
796 796 796
812 812 812
688 688 688
692 692 692
696 696 696
704 704 704
720 720 720
744 744 744
744 744 744
764 764 764
792 792 792
800 800 800
812 812 812
824 824 824
848 848 848
832 832 832
832 832 832
832 832 832
852 852 852
772 772 772
764 764 764
776 776 776
764 764 764
772 772 772
792 792 792
808 808 808
836 836 836
836 836 836
872 872 872
864 864 864
896 896 896
900 900 900
896 896 896
868 868 868
880 880 880
916 916 916
832 832 832
844 844 844
856 856 856
860 860 860
860 860 860
860 860 860
872 872 872
892 892 892
896 896 896
920 920 920
916 916 916
936 936 936
932 932 932
928 928 928
948 948 948
940 940 940
940 940 940
68 68 68
76 76 76
80 80 80
80 80 80
108 108 108
132 132 132
152 152 152
164 164 164
196 196 196
232 232 232
260 260 260
300 300 300
364 364 364
440 440 440
500 500 500
596 596 596
676 676 676
68 68 68
76 76 76
84 84 84
92 92 92
116 116 116
120 120 120
164 164 164
184 184 184
204 204 204
228 228 228
276 276 276
324 324 324
364 364 364
436 436 436
508 508 508
596 596 596
